assets/images/mail.svg

<svg xmlns="http://www.w3.org/2000/svg" xmlns:xlink="http://www.w3.org/1999/xlink" viewBox="0,0,256,256" width="48px" height="48px" fill-rule="nonzero"><g fill="none" fill-rule="nonzero" stroke="none" stroke-width="1" stroke-linecap="butt" stroke-linejoin="miter" stroke-miterlimit="10" stroke-dasharray="" stroke-dashoffset="0" font-family="none" font-weight="none" font-size="none" text-anchor="none" style="mix-blend-mode: normal"><g transform="scale(5.33333,5.33333)"><path d="M5.5,40.5h37c1.933,0 3.5,-1.567 3.5,-3.5v-26c0,-1.933 -1.567,-3.5 -3.5,-3.5h-37c-1.933,0 -3.5,1.567 -3.5,3.5v26c0,1.933 1.567,3.5 3.5,3.5z" fill="#e0e0e0"></path><path d="M26,40.5h16.5c1.933,0 3.5,-1.567 3.5,-3.5v-26c0,-1.933 -1.567,-3.5 -3.5,-3.5h-37c-1.933,0 -3.5,1.567 -3.5,3.5z" fill="#d9d9d9"></path><path d="M6.745,40.5h35.755c1.933,0 3.5,-1.567 3.5,-3.5v-25.5z" fill="#e0e0e0"></path><path d="M25.745,40.5h16.755c1.933,0 3.5,-1.567 3.5,-3.5v-25.5l-27.229,20.116z" fill="#e0e0e0"></path><path d="M42.5,9.5h-37c-1.933,0 -3.5,-0.433 -3.5,1.5v26c0,1.933 1.567,3.5 3.5,3.5h1.5v-28.5h34v28.5h1.5c1.933,0 3.5,-1.567 3.5,-3.5v-26c0,-1.933 -1.567,-1.5 -3.5,-1.5z" fill="#000000"></path><path d="M42.5,7.5h-18.5h-18.5c-1.933,0 -3.5,1.536 -3.5,3.5c0,1.206 1.518,2.258 1.518,2.258l20.482,14.498l20.482,-14.497c0,0 1.518,-1.053 1.518,-2.258c0,-1.965 -1.567,-3.501 -3.5,-3.501z" fill="#e0e0e0"></path><path d="M43.246,7.582l-19.246,13.418l-19.246,-13.418c-1.574,0.337 -2.754,1.715 -2.754,3.418c0,1.206 1.518,2.258 1.518,2.258l20.482,14.498l20.482,-14.497c0,0 1.518,-1.053 1.518,-2.258c0,-1.704 -1.18,-3.082 -2.754,-3.419z" fill="#000000"></path></g></g></svg>

<svg xmlns="http://www.w3.org/2000/svg"  viewBox="0 0 48 48" width="48px" height="48px"><path fill="#e0e0e0" d="M5.5,40.5h37c1.933,0,3.5-1.567,3.5-3.5V11c0-1.933-1.567-3.5-3.5-3.5h-37C3.567,7.5,2,9.067,2,11v26C2,38.933,3.567,40.5,5.5,40.5z"/><path fill="#d9d9d9" d="M26,40.5h16.5c1.933,0,3.5-1.567,3.5-3.5V11c0-1.933-1.567-3.5-3.5-3.5h-37C3.567,7.5,2,9.067,2,11L26,40.5z"/><path fill="#eee" d="M6.745,40.5H42.5c1.933,0,3.5-1.567,3.5-3.5V11.5L6.745,40.5z"/><path fill="#e0e0e0" d="M25.745,40.5H42.5c1.933,0,3.5-1.567,3.5-3.5V11.5L18.771,31.616L25.745,40.5z"/><path fill="#ca3737" d="M42.5,9.5h-37C3.567,9.5,2,9.067,2,11v26c0,1.933,1.567,3.5,3.5,3.5H7V12h34v28.5h1.5c1.933,0,3.5-1.567,3.5-3.5V11C46,9.067,44.433,9.5,42.5,9.5z"/><path fill="#f5f5f5" d="M42.5,7.5H24H5.5C3.567,7.5,2,9.036,2,11c0,1.206,1.518,2.258,1.518,2.258L24,27.756l20.482-14.497c0,0,1.518-1.053,1.518-2.258C46,9.036,44.433,7.5,42.5,7.5z"/><path fill="#e84f4b" d="M43.246,7.582L24,21L4.754,7.582C3.18,7.919,2,9.297,2,11c0,1.206,1.518,2.258,1.518,2.258L24,27.756l20.482-14.497c0,0,1.518-1.053,1.518-2.258C46,9.297,44.82,7.919,43.246,7.582z"/></svg>
